svgs/regular/grid-2.svg

<svg xmlns="http://www.w3.org/2000/svg" viewBox="0 0 448 512"><!--! Font Awesome Pro 6.3.0 by @fontawesome - https://fontawesome.com License - https://fontawesome.com/license (Commercial License) Copyright 2023 Fonticons, Inc. --><path d="M48 80v96h96V80H48zM0 80C0 53.5 21.5 32 48 32h96c26.5 0 48 21.5 48 48v96c0 26.5-21.5 48-48 48H48c-26.5 0-48-21.5-48-48V80zM48 336v96h96V336H48zM0 336c0-26.5 21.5-48 48-48h96c26.5 0 48 21.5 48 48v96c0 26.5-21.5 48-48 48H48c-26.5 0-48-21.5-48-48V336zM400 80H304v96h96V80zM304 32h96c26.5 0 48 21.5 48 48v96c0 26.5-21.5 48-48 48H304c-26.5 0-48-21.5-48-48V80c0-26.5 21.5-48 48-48zm0 304v96h96V336H304zm-48 0c0-26.5 21.5-48 48-48h96c26.5 0 48 21.5 48 48v96c0 26.5-21.5 48-48 48H304c-26.5 0-48-21.5-48-48V336z"/></svg>

<svg xmlns="http://www.w3.org/2000/svg" viewBox="0 0 448 512"><!--! Font Awesome Pro 6.2.0 by @fontawesome - https://fontawesome.com License - https://fontawesome.com/license (Commercial License) Copyright 2022 Fonticons, Inc. --><path d="M0 80C0 53.49 21.49 32 48 32H144C170.5 32 192 53.49 192 80V176C192 202.5 170.5 224 144 224H48C21.49 224 0 202.5 0 176V80zM48 176H144V80H48V176zM0 336C0 309.5 21.49 288 48 288H144C170.5 288 192 309.5 192 336V432C192 458.5 170.5 480 144 480H48C21.49 480 0 458.5 0 432V336zM48 432H144V336H48V432zM400 32C426.5 32 448 53.49 448 80V176C448 202.5 426.5 224 400 224H304C277.5 224 256 202.5 256 176V80C256 53.49 277.5 32 304 32H400zM400 80H304V176H400V80zM256 336C256 309.5 277.5 288 304 288H400C426.5 288 448 309.5 448 336V432C448 458.5 426.5 480 400 480H304C277.5 480 256 458.5 256 432V336zM304 432H400V336H304V432z"/></svg>
